X:1
T: Bucks o' Dromore
C:
R:Reel
Q: 232
K:D
M:4/4
L:1/8
|:d3f de dB|Ad 2f de fg|ed 2f de db|Bd AF D2D2|
d3f de dB|Ad 2f de fg|ed 2f de db|Bd AF D2D2|
FA FA d2 d2|FA FA GE E2|FA FA d2 d2|Bd AF E2D2|
FA FA d2 d2|FA FA GE E2|FA FA d2 d2|Bd AF E2D2:|
